svgs/sharp-light/chess-rook.svg

<svg xmlns="http://www.w3.org/2000/svg" viewBox="0 0 448 512"><!--! Font Awesome Pro 6.6.0 by @fontawesome - https://fontawesome.com License - https://fontawesome.com/license (Commercial License) Copyright 2024 Fonticons, Inc. --><path d="M48 32L32 32l0 16 0 152 0 7.4 5.6 4.8 50 42.9-5.1 97 32 0L120 248.8l.4-7.9-6-5.1L64 192.6 64 64l80 0 0 40 0 16 32 0 0-16 0-40 96 0 0 40 0 16 32 0 0-16 0-40 80 0 0 128.6-50.4 43.2-6 5.1 .4 7.9L333.5 352l32 0-5.1-97 50-42.9 5.6-4.8 0-7.4 0-152 0-16-16 0L48 32zM224 160c-26.5 0-48 21.5-48 48l0 64 0 16 16 0 64 0 16 0 0-16 0-64c0-26.5-21.5-48-48-48zm-16 48c0-8.8 7.2-16 16-16s16 7.2 16 16l0 48-32 0 0-48zM64 480l0-9.5L97.8 416l252.4 0L384 470.5l0 9.5L64 480zm304-96L80 384 32 461.3 32 480l0 32 32 0 320 0 32 0 0-32 0-18.7L368 384z"/></svg>

<svg xmlns="http://www.w3.org/2000/svg" viewBox="0 0 448 512"><!--! Font Awesome Pro 6.4.0 by @fontawesome - https://fontawesome.com License - https://fontawesome.com/license (Commercial License) Copyright 2023 Fonticons, Inc. --><path d="M48 32H32V48 200v7.4l5.6 4.8 50 42.9-5.1 97h32L120 248.8l.4-7.9-6-5.1L64 192.6V64h80v40 16h32V104 64h96v40 16h32V104 64h80V192.6l-50.4 43.2-6 5.1 .4 7.9L333.5 352h32l-5.1-97 50-42.9 5.6-4.8V200 48 32H400 48zM224 160c-26.5 0-48 21.5-48 48v64 16h16 64 16V272 208c0-26.5-21.5-48-48-48zm-16 48c0-8.8 7.2-16 16-16s16 7.2 16 16v48H208V208zM64 480v-9.5L97.8 416H350.2L384 470.5V480H64zm304-96H80L32 461.3V480v32H64 384h32V480 461.3L368 384z"/></svg>
